X: 7
T: The Headlands
R: strathspey
M: 4/4
L: 1/8
K: Amaj
e>c | dc BA A<c E>A | FA df e2 ef/g/ | a>e fa fe dc | c>B Ac B2 e>c |
dc BA A<c E>A | FA df a2 gf | ea Ac Bf ed |1 c2 A2 A2 :|2 c2 A2 A2 ef/g/ ||
a>e fa ce cA | dA df e2 ef/g/ | a>e fa fe dc | c>B Ac B2 ef/g/ |
a>e fa ce cA | dA df a2 gf | ea Ac Bf ed | c2 A2 A2 ef/g/ |
a>e fa ce cA | dA df e2 ef/g/ | a>e fa fe dc | c>B Ac B2 e>c |
dc BA c2 E>A | FA df a2 gf | ea Ac Bf ed | c2 A2 A2 ||


Tune 1950	Setting 1950

